X: 3567
T: Big Sea Ballad
R: reel
M: 4/4
K: Adorian
Jgf|Je8-|e2Bc{a/}dB{a/}dB|{c/}A8-|A4 {B}AG{A/}ED|EA3-A4-|A4JB4-|
AG{A/}GFE4-|E8|JB>JB A4-|A6|Jgf|Je8-|e2Bc{a/}dB{a/}dB|
{c/}A4 {B}AG{A/}ED|EA4JB3|AG2AE{A/}E3-|E4-E c{Bc}BG|A6GE|z6|
ef|f2Jg4{a/}ge|Ja6b/a/f|{a/}ge4-e3-|e2z4ef|{a/}fJg6Jb|a{b}a3Ja2{c'/}a2|
gfe6-|e2z2 eJ=fed2|Je4-e3c|JB4-B3Jc|A{c/}AGE-E4-|
E-E4Je2c|{a/}dcA4B/A/G|E6 Jc/B/A|{c/}A8:|
ef|{a/}fJg6a|Jg6-gJg-|g4e4-|e8|z8|
z3Jecdd2-|d{a/}d3cd3-|d3ce4-|e8-|e2(3cBAJA4-|A8|

